X: 177
M: C
L: 1/8
K: D
f> g | (a<f) (e>f) d2 (f<d) |
(B<d) (A<F) A2 d> e | (f>a) (b>d') (a<f) d> f |
(Tf2 e2) z2 (f>g) | (a<f) (e>f) d2 f d |
(B<d) (A<F) A2 f> e | (f<a) bd' (a<f) (e>f) |
d4 z4 | d> e f> g af d'2 |
d> e f> g a f d' d |
d> e d B A G A d |
f d f a (Hb>c'Hd') b | a <f f <d

